;FLAVOR:Marlin
;TIME:847
;Filament used: 0.744793m
;Layer height: 0.2
;MINX:66.45
;MINY:82.45
;MINZ:0.2
;MAXX:153.55
;MAXY:137.55
;MAXZ:1.2
;Generated with Cura_SteamEngine 4.1.0
M140 S70
M105
M190 S70
M104 S205
M105
M109 S205
M82 ;absolute extrusion mode
M201 X500.00 Y500.00 Z100.00 E5000.00 ;Setup machine max acceleration
M203 X500.00 Y500.00 Z10.00 E50.00 ;Setup machine max feedrate
M204 P500.00 R1000.00 T500.00 ;Setup Print/Retract/Travel acceleration
M205 X8.00 Y8.00 Z0.40 E5.00 ;Setup Jerk
M220 S100 ;Reset Feedrate
M221 S100 ;Reset Flowrate

G28 ;Home

G92 E0 ;Reset Extruder
G1 Z2.0 F3000 ;Move Z Axis up
G1 X10.1 Y20 Z0.28 F5000.0 ;Move to start position
G1 X10.1 Y200.0 Z0.28 F1500.0 E15 ;Draw the first line
G1 X10.4 Y200.0 Z0.28 F5000.0 ;Move to side a little
G1 X10.4 Y20 Z0.28 F1500.0 E30 ;Draw the second line
G92 E0 ;Reset Extruder
G1 Z2.0 F3000 ;Move Z Axis up

G92 E0
G92 E0
G1 F1500 E-6.5
;LAYER_COUNT:6
;LAYER:0
M107
;MESH:0_Stock_LCD_Cover.stl
G0 F6000 X83.401 Y136.549 Z0.2
;TYPE:WALL-INNER
G1 F1500 E0
G1 F1200 X67.7 Y136.55 E0.6603
G1 X67.45 Y136.55 E0.67081
G1 X67.45 Y136.3 E0.67761
G1 X67.45 Y83.7 E2.88967
G1 X67.45 Y83.45 E2.90019
G1 X67.7 Y83.45 E2.90699
G1 X136.599 Y83.451 E5.8045
G1 X152.3 Y83.45 E6.46479
G1 X152.55 Y83.45 E6.47531
G1 X152.55 Y83.7 E6.48211
G1 X152.549 Y126.999 E8.30302
G1 X152.55 Y136.3 E8.69417
G1 X152.55 Y136.55 E8.70469
G1 X152.3 Y136.55 E8.71149
G1 X83.401 Y136.549 E11.609
G1 F1500 E5.109
G1 F300 Z0.4
G0 F6000 X131.399 Y131.451 Z0.4
G1 F300 Z0.2
G1 F1500 E11.609
G1 F1200 X147.45 Y131.45 E12.28401
G1 X147.45 Y88.55 E14.08815
G1 X88.601 Y88.549 E16.56301
G1 X72.55 Y88.55 E17.23802
G1 X72.55 Y131.45 E19.04216
G1 X131.399 Y131.451 E21.51702
G1 F1500 E15.01702
G1 F300 Z0.4
G0 F6000 X83.401 Y137.049 Z0.4
G1 F300 Z0.2
G1 F1500 E21.51702
G1 F1200 X67.2 Y137.05 E22.19834
G1 X66.95 Y137.05 E22.20885
G1 X66.95 Y136.8 E22.21566
G1 X66.95 Y83.2 E24.46977
G1 X66.95 Y82.95 E24.48029
G1 X67.2 Y82.95 E24.48709
G1 X136.599 Y82.951 E27.40562
G1 X152.8 Y82.95 E28.08695
G1 X153.05 Y82.95 E28.09746
G1 X153.05 Y83.2 E28.10426
G1 X153.049 Y126.999 E29.9462
G1 X153.05 Y136.8 E30.35838
G1 X153.05 Y137.05 E30.36889
G1 X152.8 Y137.05 E30.3757
G1 X83.401 Y137.049 E33.29423
G1 F1500 E26.79423
G1 F300 Z0.4
G0 F6000 X131.399 Y130.951 Z0.4
G1 F300 Z0.2
G1 F1500 E33.29423
G1 F1200 X146.95 Y130.95 E33.94822
G1 X146.95 Y89.05 E35.7103
G1 X88.601 Y89.049 E38.16413
G1 X73.05 Y89.05 E38.81812
G1 X73.05 Y130.95 E40.5802
G1 X131.399 Y130.951 E43.03403
G1 F1500 E36.53403
G1 F300 Z0.4
G0 F6000 X83.401 Y137.549 Z0.4
;TYPE:WALL-OUTER
G1 F300 Z0.2
G1 F1500 E43.03403
G1 F1200 X66.7 Y137.55 E43.73638
G1 X66.45 Y137.55 E43.7469
G1 X66.45 Y137.3 E43.7537
G1 X66.45 Y82.7 E46.04987
G1 X66.45 Y82.45 E46.06038
G1 X66.7 Y82.45 E46.06719
G1 X136.599 Y82.451 E49.00675
G1 X153.3 Y82.45 E49.7091
G1 X153.55 Y82.45 E49.71961
G1 X153.55 Y82.7 E49.72642
G1 X153.549 Y126.999 E51.58938
G1 X153.55 Y137.3 E52.02259
G1 X153.55 Y137.55 E52.0331
G1 X153.3 Y137.55 E52.0399
G1 X83.401 Y137.549 E54.97946
G0 F6000 X83.201 Y137.549
G1 F1500 E48.47946
G1 F300 Z0.4
G0 F6000 X131.399 Y130.451 Z0.4
G1 F300 Z0.2
G1 F1500 E54.97946
G1 F1200 X146.45 Y130.45 E55.61243
G1 X146.45 Y89.55 E57.33245
G1 X88.601 Y89.549 E59.76526
G1 X73.55 Y89.55 E60.39822
G1 X73.55 Y130.45 E62.11824
G1 X131.399 Y130.451 E64.55105
G0 F6000 X131.599 Y130.451
G1 F1500 E58.05105
G1 F300 Z0.4
G0 F6000 X131.399 Y131.941 Z0.4
;TYPE:SKIN
G1 F300 Z0.2
G1 F1500 E64.55105
G1 F1200 X147.94 Y131.94 E65.24667
G1 X147.94 Y88.06 E67.09202
G1 X88.601 Y88.059 E69.58749
G1 X72.06 Y88.06 E70.28311
G1 X72.06 Y131.94 E72.12846
G1 X131.399 Y131.941 E74.62392
G1 F1500 E68.12392
G1 F300 Z0.4
G0 F6000 X152.059 Y126.999 Z0.4
G1 F300 Z0.2
G1 F1500 E74.62392
G1 F1200 X152.06 Y136.06 E75.00498
G1 X83.401 Y136.059 E77.89239
G1 X67.94 Y136.06 E78.5426
G1 X67.94 Y83.94 E80.73447
G1 X136.599 Y83.941 E83.62189
G1 X152.06 Y83.94 E84.27209
G1 X152.059 Y126.999 E86.08291
G1 F1500 E79.58291
G1 F300 Z0.4
G0 F6000 X151.859 Y84.684 Z0.4
G1 F300 Z0.2
G1 F1500 E86.08291
G1 F1200 X151.315 Y84.14 E86.11527
G0 F6000 X150.608 Y84.14
G1 F1200 X151.859 Y85.391 E86.18967
G0 F6000 X151.859 Y86.098
G1 F1200 X149.901 Y84.14 E86.30612
G0 F6000 X149.194 Y84.14
G1 F1200 X151.859 Y86.805 E86.46462
G0 F6000 X151.859 Y87.512
G1 F1200 X148.487 Y84.14 E86.66516
G0 F6000 X147.78 Y84.14
G1 F1200 X151.859 Y88.22 E86.90779
G0 F6000 X151.859 Y88.927
G1 F1200 X147.073 Y84.14 E87.19246
G0 F6000 X146.366 Y84.14
G1 F1200 X151.859 Y89.634 E87.51918
G0 F6000 X151.859 Y90.341
G1 F1200 X145.659 Y84.14 E87.88795
G0 F6000 X144.951 Y84.14
G1 F1200 X151.859 Y91.048 E88.29879
G0 F6000 X151.859 Y91.755
G1 F1200 X148.138 Y88.034 E88.52009
G0 F6000 X147.963 Y87.859
G1 F1200 X144.244 Y84.14 E88.74128
G0 F6000 X143.537 Y84.14
G1 F1200 X147.256 Y87.859 E88.96246
G0 F6000 X146.549 Y87.859
G1 F1200 X142.83 Y84.14 E89.18364
G0 F6000 X142.123 Y84.14
G1 F1200 X145.842 Y87.859 E89.40483
G0 F6000 X145.135 Y87.859
G1 F1200 X141.416 Y84.14 E89.62601
G0 F6000 X140.709 Y84.14
G1 F1200 X144.427 Y87.859 E89.84717
G0 F6000 X143.72 Y87.859
G1 F1200 X140.002 Y84.14 E90.06832
G0 F6000 X139.295 Y84.14
G1 F1200 X143.013 Y87.859 E90.28947
G0 F6000 X142.306 Y87.859
G1 F1200 X138.587 Y84.14 E90.51066
G0 F6000 X137.88 Y84.14
G1 F1200 X141.599 Y87.859 E90.73184
G0 F6000 X140.892 Y87.859
G1 F1200 X137.173 Y84.14 E90.95302
G0 F6000 X136.466 Y84.14
G1 F1200 X140.185 Y87.859 E91.17421
G0 F6000 X139.478 Y87.859
G1 F1200 X135.759 Y84.14 E91.39539
G0 F6000 X135.052 Y84.14
G1 F1200 X138.771 Y87.859 E91.61657
G0 F6000 X138.064 Y87.859
G1 F1200 X134.345 Y84.14 E91.83776
G0 F6000 X133.638 Y84.14
G1 F1200 X137.356 Y87.859 E92.05891
G0 F6000 X136.649 Y87.859
G1 F1200 X132.931 Y84.14 E92.28007
G0 F6000 X132.224 Y84.14
G1 F1200 X135.942 Y87.859 E92.50122
G0 F6000 X135.235 Y87.859
G1 F1200 X131.516 Y84.14 E92.7224
G0 F6000 X130.809 Y84.14
G1 F1200 X134.528 Y87.859 E92.94359
G0 F6000 X133.821 Y87.859
G1 F1200 X130.102 Y84.14 E93.16477
G0 F6000 X129.395 Y84.14
G1 F1200 X133.114 Y87.859 E93.38595
G0 F6000 X132.407 Y87.859
G1 F1200 X128.688 Y84.14 E93.60714
G0 F6000 X127.981 Y84.14
G1 F1200 X131.7 Y87.859 E93.82832
G0 F6000 X130.992 Y87.859
G1 F1200 X127.274 Y84.14 E94.04947
G0 F6000 X126.567 Y84.14
G1 F1200 X130.285 Y87.859 E94.27063
G0 F6000 X129.578 Y87.859
G1 F1200 X125.86 Y84.14 E94.49178
G0 F6000 X125.152 Y84.14
G1 F1200 X128.871 Y87.859 E94.71296
G0 F6000 X128.164 Y87.859
G1 F1200 X124.445 Y84.14 E94.93415
G0 F6000 X123.738 Y84.14
G1 F1200 X127.457 Y87.859 E95.15533
G0 F6000 X126.75 Y87.859
G1 F1200 X123.031 Y84.14 E95.37652
G0 F6000 X122.324 Y84.14
G1 F1200 X126.043 Y87.859 E95.5977
G0 F6000 X125.336 Y87.859
G1 F1200 X121.617 Y84.14 E95.81888
G0 F6000 X120.91 Y84.14
G1 F1200 X124.628 Y87.859 E96.04004
G0 F6000 X123.921 Y87.859
G1 F1200 X120.203 Y84.14 E96.26119
G0 F6000 X119.496 Y84.14
G1 F1200 X123.214 Y87.859 E96.48234
G0 F6000 X122.507 Y87.859
G1 F1200 X118.788 Y84.14 E96.70353
G0 F6000 X118.081 Y84.14
G1 F1200 X121.8 Y87.859 E96.92471
G0 F6000 X121.093 Y87.859
G1 F1200 X117.374 Y84.14 E97.14589
G0 F6000 X116.667 Y84.14
G1 F1200 X120.386 Y87.859 E97.36708
G0 F6000 X119.679 Y87.859
G1 F1200 X115.96 Y84.14 E97.58826
G0 F6000 X115.253 Y84.14
G1 F1200 X118.972 Y87.859 E97.80945
G0 F6000 X118.265 Y87.859
G1 F1200 X114.546 Y84.14 E98.03063
G0 F6000 X113.839 Y84.14
G1 F1200 X117.557 Y87.859 E98.25178
G0 F6000 X116.85 Y87.859
G1 F1200 X113.132 Y84.14 E98.47294
G0 F6000 X112.425 Y84.14
G1 F1200 X116.143 Y87.859 E98.69409
G0 F6000 X115.436 Y87.859
G1 F1200 X111.717 Y84.14 E98.91527
G0 F6000 X111.01 Y84.14
G1 F1200 X114.729 Y87.859 E99.13646
G0 F6000 X114.022 Y87.859
G1 F1200 X110.303 Y84.14 E99.35764
G0 F6000 X109.596 Y84.14
G1 F1200 X113.315 Y87.859 E99.57882
G0 F6000 X112.608 Y87.859
G1 F1200 X108.889 Y84.14 E99.80001
G0 F6000 X108.182 Y84.14
G1 F1200 X111.901 Y87.859 E100.02119
G0 F6000 X111.193 Y87.859
G1 F1200 X107.475 Y84.14 E100.24235
G0 F6000 X106.768 Y84.14
G1 F1200 X110.486 Y87.859 E100.4635
G0 F6000 X109.779 Y87.859
G1 F1200 X106.061 Y84.14 E100.68465
G0 F6000 X105.353 Y84.14
G1 F1200 X109.072 Y87.859 E100.90584
G0 F6000 X108.365 Y87.859
G1 F1200 X104.646 Y84.14 E101.12702
G0 F6000 X103.939 Y84.14
G1 F1200 X107.658 Y87.859 E101.3482
G0 F6000 X106.951 Y87.859
G1 F1200 X103.232 Y84.14 E101.56939
G0 F6000 X102.525 Y84.14
G1 F1200 X106.244 Y87.859 E101.79057
G0 F6000 X105.537 Y87.859
G1 F1200 X101.817 Y84.14 E102.01178
G0 F6000 X101.11 Y84.14
G1 F1200 X104.829 Y87.859 E102.23297
G0 F6000 X104.122 Y87.859
G1 F1200 X100.403 Y84.14 E102.45415
G0 F6000 X99.696 Y84.14
G1 F1200 X103.415 Y87.859 E102.67533
G0 F6000 X102.708 Y87.859
G1 F1200 X98.989 Y84.14 E102.89652
G0 F6000 X98.282 Y84.14
G1 F1200 X102.001 Y87.859 E103.1177
G0 F6000 X101.294 Y87.859
G1 F1200 X97.575 Y84.14 E103.33889
G0 F6000 X96.867 Y84.14
G1 F1200 X100.587 Y87.859 E103.5601
G0 F6000 X99.88 Y87.859
G1 F1200 X96.16 Y84.14 E103.78131
G0 F6000 X95.453 Y84.14
G1 F1200 X99.173 Y87.859 E104.00252
G0 F6000 X98.466 Y87.859
G1 F1200 X94.746 Y84.14 E104.22374
G0 F6000 X94.039 Y84.14
G1 F1200 X97.758 Y87.859 E104.44492
G0 F6000 X97.051 Y87.859
G1 F1200 X93.332 Y84.14 E104.66611
G0 F6000 X92.625 Y84.14
G1 F1200 X96.344 Y87.859 E104.88729
G0 F6000 X95.637 Y87.859
G1 F1200 X91.918 Y84.14 E105.10847
G0 F6000 X91.211 Y84.14
G1 F1200 X94.93 Y87.859 E105.32966
G0 F6000 X94.223 Y87.859
G1 F1200 X90.504 Y84.14 E105.55084
G0 F6000 X89.796 Y84.14
G1 F1200 X93.516 Y87.859 E105.77205
G0 F6000 X92.809 Y87.859
G1 F1200 X89.089 Y84.14 E105.99327
G0 F6000 X88.382 Y84.14
G1 F1200 X92.102 Y87.859 E106.21448
G0 F6000 X91.394 Y87.859
G1 F1200 X87.675 Y84.14 E106.43566
G0 F6000 X86.968 Y84.14
G1 F1200 X90.687 Y87.859 E106.65685
G0 F6000 X89.98 Y87.859
G1 F1200 X86.261 Y84.14 E106.87803
G0 F6000 X85.554 Y84.14
G1 F1200 X89.273 Y87.859 E107.09921
G0 F6000 X88.566 Y87.859
G1 F1200 X84.847 Y84.14 E107.3204
G0 F6000 X84.14 Y84.14
G1 F1200 X87.859 Y87.859 E107.54158
G0 F6000 X87.152 Y87.859
G1 F1200 X83.432 Y84.14 E107.76279
G0 F6000 X82.725 Y84.14
G1 F1200 X86.445 Y87.859 E107.98401
G0 F6000 X85.738 Y87.859
G1 F1200 X82.018 Y84.14 E108.20522
G0 F6000 X81.311 Y84.14
G1 F1200 X85.031 Y87.859 E108.42643
G0 F6000 X84.323 Y87.859
G1 F1200 X80.604 Y84.14 E108.64762
G0 F6000 X79.897 Y84.14
G1 F1200 X83.616 Y87.859 E108.8688
G0 F6000 X82.909 Y87.859
G1 F1200 X79.19 Y84.14 E109.08998
G0 F6000 X78.483 Y84.14
G1 F1200 X82.202 Y87.859 E109.31117
G0 F6000 X81.495 Y87.859
G1 F1200 X77.776 Y84.14 E109.53235
G0 F6000 X77.068 Y84.14
G1 F1200 X80.788 Y87.859 E109.75356
G0 F6000 X80.081 Y87.859
G1 F1200 X76.361 Y84.14 E109.97478
G0 F6000 X75.654 Y84.14
G1 F1200 X79.374 Y87.859 E110.19599
G0 F6000 X78.667 Y87.859
G1 F1200 X74.947 Y84.14 E110.4172
G0 F6000 X74.24 Y84.14
G1 F1200 X77.959 Y87.859 E110.63839
G0 F6000 X77.252 Y87.859
G1 F1200 X73.533 Y84.14 E110.85957
G0 F6000 X72.826 Y84.14
G1 F1200 X76.545 Y87.859 E111.08075
G0 F6000 X75.838 Y87.859
G1 F1200 X72.119 Y84.14 E111.30194
G0 F6000 X71.412 Y84.14
G1 F1200 X75.131 Y87.859 E111.52312
G0 F6000 X74.424 Y87.859
G1 F1200 X70.705 Y84.14 E111.74431
G0 F6000 X69.997 Y84.14
G1 F1200 X73.717 Y87.859 E111.96552
G0 F6000 X73.01 Y87.859
G1 F1200 X69.29 Y84.14 E112.18673
G0 F6000 X68.583 Y84.14
G1 F1200 X72.303 Y87.859 E112.40795
G0 F6000 X71.86 Y88.123
G1 F1200 X68.139 Y84.403 E112.62922
G0 F6000 X68.139 Y85.11
G1 F1200 X71.86 Y88.83 E112.85049
G0 F6000 X71.86 Y89.538
G1 F1200 X68.139 Y85.817 E113.07179
G0 F6000 X68.139 Y86.524
G1 F1200 X71.86 Y90.245 E113.2931
G0 F6000 X71.86 Y90.952
G1 F1200 X68.139 Y87.231 E113.5144
G0 F6000 X68.139 Y87.938
G1 F1200 X71.86 Y91.659 E113.7357
G0 F6000 X71.86 Y92.366
G1 F1200 X68.139 Y88.645 E113.957
G0 F6000 X68.139 Y89.352
G1 F1200 X71.86 Y93.073 E114.17831
G0 F6000 X71.86 Y93.78
G1 F1200 X68.139 Y90.059 E114.39961
G0 F6000 X68.139 Y90.767
G1 F1200 X71.86 Y94.487 E114.62088
G0 F6000 X71.86 Y95.194
G1 F1200 X68.139 Y91.474 E114.84215
G0 F6000 X68.139 Y92.181
G1 F1200 X71.86 Y95.902 E115.06346
G0 F6000 X71.86 Y96.609
G1 F1200 X68.139 Y92.888 E115.28476
G0 F6000 X68.139 Y93.595
G1 F1200 X71.86 Y97.316 E115.50606
G0 F6000 X71.86 Y98.023
G1 F1200 X68.139 Y94.302 E115.72736
G0 F6000 X68.139 Y95.009
G1 F1200 X71.86 Y98.73 E115.94867
G0 F6000 X71.86 Y99.437
G1 F1200 X68.139 Y95.716 E116.16997
G0 F6000 X68.139 Y96.423
G1 F1200 X71.86 Y100.144 E116.39127
G0 F6000 X71.86 Y100.851
G1 F1200 X68.139 Y97.131 E116.61254
G0 F6000 X68.139 Y97.838
G1 F1200 X71.86 Y101.558 E116.83382
G0 F6000 X71.86 Y102.266
G1 F1200 X68.139 Y98.545 E117.05512
G0 F6000 X68.139 Y99.252
G1 F1200 X71.86 Y102.973 E117.27642
G0 F6000 X71.86 Y103.68
G1 F1200 X68.139 Y99.959 E117.49772
G0 F6000 X68.139 Y100.666
G1 F1200 X71.86 Y104.387 E117.71903
G0 F6000 X71.86 Y105.094
G1 F1200 X68.139 Y101.373 E117.94033
G0 F6000 X68.139 Y102.08
G1 F1200 X71.86 Y105.801 E118.16163
G0 F6000 X71.86 Y106.508
G1 F1200 X68.139 Y102.787 E118.38293
G0 F6000 X68.139 Y103.494
G1 F1200 X71.86 Y107.215 E118.60424
G0 F6000 X71.86 Y107.922
G1 F1200 X68.139 Y104.202 E118.82551
G0 F6000 X68.139 Y104.909
G1 F1200 X71.86 Y108.629 E119.04678
G0 F6000 X71.86 Y109.337
G1 F1200 X68.139 Y105.616 E119.26808
G0 F6000 X68.139 Y106.323
G1 F1200 X71.86 Y110.044 E119.48939
G0 F6000 X71.86 Y110.751
G1 F1200 X68.139 Y107.03 E119.71069
G0 F6000 X68.139 Y107.737
G1 F1200 X71.86 Y111.458 E119.93199
G0 F6000 X71.86 Y112.165
G1 F1200 X68.139 Y108.444 E120.15329
G0 F6000 X68.139 Y109.151
G1 F1200 X71.86 Y112.872 E120.3746
G0 F6000 X71.86 Y113.579
G1 F1200 X68.139 Y109.858 E120.5959
G0 F6000 X68.139 Y110.566
G1 F1200 X71.86 Y114.286 E120.81717
G0 F6000 X71.86 Y114.993
G1 F1200 X68.139 Y111.273 E121.03844
G0 F6000 X68.139 Y111.98
G1 F1200 X71.86 Y115.701 E121.25975
G0 F6000 X71.86 Y116.408
G1 F1200 X68.139 Y112.687 E121.48105
G0 F6000 X68.139 Y113.394
G1 F1200 X71.86 Y117.115 E121.70235
G0 F6000 X71.86 Y117.822
G1 F1200 X68.139 Y114.101 E121.92365
G0 F6000 X68.139 Y114.808
G1 F1200 X71.86 Y118.529 E122.14496
G0 F6000 X71.86 Y119.236
G1 F1200 X68.139 Y115.515 E122.36626
G0 F6000 X68.139 Y116.222
G1 F1200 X71.86 Y119.943 E122.58756
G0 F6000 X71.86 Y120.65
G1 F1200 X68.139 Y116.93 E122.80884
G0 F6000 X68.139 Y117.637
G1 F1200 X71.86 Y121.357 E123.03011
G0 F6000 X71.86 Y122.065
G1 F1200 X68.139 Y118.344 E123.25141
G0 F6000 X68.139 Y119.051
G1 F1200 X71.86 Y122.772 E123.47271
G0 F6000 X71.86 Y123.479
G1 F1200 X68.139 Y119.758 E123.69402
G0 F6000 X68.139 Y120.465
G1 F1200 X71.86 Y124.186 E123.91532
G0 F6000 X71.86 Y124.893
G1 F1200 X68.139 Y121.172 E124.13662
G0 F6000 X68.139 Y121.879
G1 F1200 X71.86 Y125.6 E124.35792
G0 F6000 X71.86 Y126.307
G1 F1200 X68.139 Y122.586 E124.57923
G0 F6000 X68.139 Y123.293
G1 F1200 X71.86 Y127.014 E124.80053
G0 F6000 X71.86 Y127.721
G1 F1200 X68.139 Y124.001 E125.0218
G0 F6000 X68.139 Y124.708
G1 F1200 X71.86 Y128.428 E125.24307
G0 F6000 X71.86 Y129.136
G1 F1200 X68.139 Y125.415 E125.46438
G0 F6000 X68.139 Y126.122
G1 F1200 X71.86 Y129.843 E125.68568
G0 F6000 X71.86 Y130.55
G1 F1200 X68.139 Y126.829 E125.90698
G0 F6000 X68.139 Y127.536
G1 F1200 X71.86 Y131.257 E126.12828
G0 F6000 X71.86 Y131.964
G1 F1200 X68.139 Y128.243 E126.34959
G0 F6000 X68.139 Y128.95
G1 F1200 X75.047 Y135.858 E126.76043
G0 F6000 X75.754 Y135.858
G1 F1200 X72.035 Y132.139 E126.98162
G0 F6000 X72.742 Y132.139
G1 F1200 X76.461 Y135.858 E127.2028
G0 F6000 X77.168 Y135.858
G1 F1200 X73.45 Y132.139 E127.42395
G0 F6000 X74.157 Y132.139
G1 F1200 X77.875 Y135.858 E127.64511
G0 F6000 X78.582 Y135.858
G1 F1200 X74.864 Y132.139 E127.86626
G0 F6000 X75.571 Y132.139
G1 F1200 X79.29 Y135.858 E128.08744
G0 F6000 X79.997 Y135.858
G1 F1200 X76.278 Y132.139 E128.30863
G0 F6000 X76.985 Y132.139
G1 F1200 X80.704 Y135.858 E128.52981
G0 F6000 X81.411 Y135.858
G1 F1200 X77.692 Y132.139 E128.75099
G0 F6000 X78.399 Y132.139
G1 F1200 X82.118 Y135.858 E128.97218
G0 F6000 X82.825 Y135.858
G1 F1200 X79.106 Y132.139 E129.19336
G0 F6000 X79.813 Y132.139
G1 F1200 X83.532 Y135.858 E129.41454
G0 F6000 X84.239 Y135.858
G1 F1200 X80.521 Y132.139 E129.6357
G0 F6000 X81.228 Y132.139
G1 F1200 X84.946 Y135.858 E129.85685
